!!!COM: Manuel Elias Coronel
!!!OTL: Marujita
**kern
*I"Guitarra acústica
*I'Guit. ac.
!!pagebreak:original
*clefG2
*Trd0c0
*k[b-]
*F:
*M6/8
=1
!LO:TX:t=[quarter]=120
8.gL
16ffk
8eeJ
8ddL
8cc#X
8eeJ
=2
4dd
(8dd
4.dd)
=3
8gL
8f#X
8gJ
4.dd
=4
(4.a
4.a)
!!linebreak:original
=5
8.aL
16cck
8bnJ
8ccL
8b
8cc#XJ
=6
4dd
(8dd
4.dd)
=7
8.gL
16fk
8eJ
4.a
=8
(4.f
4.f)
!!linebreak:original
=9
8.aL
16cck
8bnJ
8ccL
8b
8cc#XJ
=10
4dd
(8dd
4.dd)
=11
8.gL
16fk
8eJ
4.a
=12
(4.f
!LO:TX:a:B:t=Fine
4.f)
!!linebreak:original
=13:|!
8.aL
16ffk
8eeJ
8ddL
8cc#X
8eeJ
=14
4dd
(8ff
4.ff)
=15
8.eeL
16ddk
8cc#XJ
4.dd
=16
(4.a
4.a)
!!linebreak:original
=17
8aL
8cc
8bnJ
8ccL
8b
8cc#XJ
=18
4dd
(8dd
4.dd)
=19
8.gL
16fk
8eJ
4.a
=20
(4.f
4.f)
!!linebreak:original
=21
8.aL
16cck
8bnJ
8ccL
8b
8cc#XJ
=22
4dd
(8dd
4.dd)
=23
8.gL
16fk
8eJ
4.a
=24
(4.f
!LO:TX:a:B:t=D.C. al Fine
4.f)
=
*-